X:1
T:Haul Away Your Bowline
M:4/4
L:1/4
K:A
 A3/2 A/2 A A| G2 A B| c F B A| G- E F G| A3/2 A/2 A A| G2 A d| c- A B- G|\
 A2 z2|
